img/load-more.svg

<svg width="15" height="15" viewBox="0 0 15 15" fill="none" xmlns="http://www.w3.org/2000/svg">
<path fill-rule="evenodd" clip-rule="evenodd" d="M3.43156 10.8184C4.39429 11.9973 5.85925 12.75 7.5 12.75C10.3995 12.75 12.75 10.3995 12.75 7.5H14.25C14.25 11.2279 11.2279 14.25 7.5 14.25C5.44514 14.25 3.60473 13.3318 2.36669 11.8833L1.39017 12.8598C1.31984 12.9302 1.22446 12.9697 1.125 12.9697C0.917893 12.9697 0.75 12.8018 0.75 12.5947V9.375C0.75 9.16789 0.917893 9 1.125 9H4.34467C4.44413 9 4.53951 9.03951 4.60984 9.10983C4.75628 9.25628 4.75628 9.49372 4.60984 9.64017L3.43156 10.8184ZM11.5684 4.18156C10.6057 3.00267 9.14075 2.25 7.5 2.25C4.6005 2.25 2.25 4.6005 2.25 7.5H0.75C0.75 3.77208 3.77208 0.75 7.5 0.75C9.55486 0.75 11.3953 1.6682 12.6333 3.11669L13.6098 2.14017C13.7563 1.99372 13.9937 1.99372 14.1402 2.14017C14.2105 2.21049 14.25 2.30587 14.25 2.40533V5.625C14.25 5.83211 14.0821 6 13.875 6H10.6553C10.4482 6 10.2803 5.83211 10.2803 5.625C10.2803 5.52554 10.3198 5.43016 10.3902 5.35984L11.5684 4.18156Z" fill="#BCBFC2"/>
</svg>

<svg width="15" height="15" fill="none" xmlns="http://www.w3.org/2000/svg"><path fill-rule="evenodd" clip-rule="evenodd" d="M3.432 10.818A5.25 5.25 0 0012.75 7.5h1.5a6.75 6.75 0 01-11.883 4.383l-.977.977a.375.375 0 01-.64-.265v-3.22C.75 9.168.918 9 1.125 9h3.22a.375.375 0 01.265.64l-1.178 1.178zm8.136-6.636A5.25 5.25 0 002.25 7.5H.75a6.75 6.75 0 0111.883-4.383l.977-.977a.375.375 0 01.64.265v3.22a.375.375 0 01-.375.375h-3.22a.375.375 0 01-.265-.64l1.178-1.178z" fill="#BCBFC2"/></svg>
